X:17991
T:unknown
C:trad.
S:Mike Rafferty
M:2/4
I:speed 350
K:G
|:DG GA | B2 AG |
M:2/4l
E2A2 ABAG |
M:2/4
EA A2 | DG GA | B2 AB | d2 cF | AG G2 :|
|: Bd dc | B2 AG |
M:2/4l
E2A2 ABAG |
M:2/4
EA A2 | Bd dc | B2 AB | d2 cF | AG G2:|
